components/icon/svg/24/journey_capacity-indicator-filled.svg

<?xml version="1.0" encoding="UTF-8"?>
<svg width="24px" height="24px" viewBox="0 0 24 24" version="1.1" xmlns="http://www.w3.org/2000/svg" xmlns:xlink="http://www.w3.org/1999/xlink">
    <!-- Generator: Sketch 64 (93537) - https://sketch.com -->
    <title>ic-db_journey_capacity-indicator-filled_24</title>
    <desc>Created with Sketch.</desc>
    <g id="Symbols" stroke="none" stroke-width="1" fill="none" fill-rule="evenodd">
        <g id="24dp-Icon/Journey/Capacity-Indicator-Filled" fill="#282D37">
            <path d="M2,18.9672 C2,19.5306 2.446,19.9766 3.0094,19.9766 L8.9953,19.9766 C9.5587,19.9766 10.0047,19.5541 10.0047,18.9907 L10.0047,13.0986 C10.0047,11.9484 9.0423,11.0094 7.892,11.0094 L4.1361,11.0094 C2.9624,11.0094 2,11.878 2,12.9578 L2,18.9672 Z M12,18.9907 C12,19.5306 12.4461,19.9766 12.986,19.9766 L15.0987,19.9766 C15.5916,19.9766 15.9672,19.5071 15.9672,18.9907 L15.9672,12.9578 C15.9672,11.878 14.9813,11.0564 13.878,11.0564 L12.986,11.0564 C12.3522,11.0564 12,11.5024 12,12.0188 L12,18.9907 Z M17.986,18.9907 C17.986,19.5306 18.432,19.9766 18.9719,19.9766 L21.0846,19.9766 C21.6011,19.9766 21.9062,19.5071 21.9062,18.9907 L21.9062,13.0986 C21.9062,11.8073 20.9673,11.0564 19.864,11.0564 L18.9719,11.0564 C18.3381,11.0564 17.986,11.5024 17.986,12.0188 L17.986,18.9907 Z M3.7723,7.2534 C3.7723,8.5446 4.683,9.4601 5.9907,9.4601 C7.2983,9.4601 8.2324,8.5446 8.2324,7.2534 C8.2324,5.939 7.2983,5 5.9907,5 C4.683,5 3.7723,5.939 3.7723,7.2534 Z M10.1104,7.2536 C10.1104,8.5613 11.0444,9.4953 12.3521,9.4953 C13.6598,9.4953 14.5705,8.5613 14.5705,7.2536 C14.5705,5.9459 13.6598,5.0352 12.3521,5.0352 C11.0444,5.0352 10.1104,5.9459 10.1104,7.2536 Z M16.4836,7.2535 C16.4836,8.5446 17.4226,9.4601 18.7372,9.4601 C20.0048,9.4601 20.9438,8.5448 20.9438,7.2535 C20.9438,5.939 20.0518,5 18.7372,5 C17.4226,5 16.4836,5.939 16.4836,7.2535 Z" id="🎨-Color"></path>
        </g>
    </g>
</svg>

<svg width="24" height="24" xmlns="http://www.w3.org/2000/svg"><path d="M2 18.967c0 .564.446 1.01 1.01 1.01h5.985c.564 0 1.01-.423 1.01-.986v-5.892c0-1.15-.963-2.09-2.113-2.09H4.136C2.962 11.01 2 11.878 2 12.958v6.01zm10 .024c0 .54.446.986.986.986h2.113c.493 0 .868-.47.868-.986v-6.033c0-1.08-.986-1.902-2.089-1.902h-.892c-.634 0-.986.446-.986.963v6.972zm5.986 0c0 .54.446.986.986.986h2.113c.516 0 .821-.47.821-.986v-5.892c0-1.292-.939-2.043-2.042-2.043h-.892c-.634 0-.986.446-.986.963v6.972zM3.772 7.253c0 1.292.911 2.207 2.219 2.207 1.307 0 2.241-.915 2.241-2.207C8.232 5.94 7.298 5 5.991 5c-1.308 0-2.219.939-2.219 2.253zm6.338 0c0 1.308.934 2.242 2.242 2.242 1.308 0 2.218-.934 2.218-2.241 0-1.308-.91-2.219-2.218-2.219-1.308 0-2.242.91-2.242 2.219zm6.374 0c0 1.292.939 2.207 2.253 2.207 1.268 0 2.207-.915 2.207-2.207C20.944 5.94 20.052 5 18.737 5c-1.314 0-2.253.939-2.253 2.253z" fill="#282D37" fill-rule="evenodd"/></svg>
